content/assets/house.svg

<svg width="192" height="192" viewBox="0 0 192 192" xmlns="http://www.w3.org/2000/svg" xmlns:usvg="https://github.com/RazrFalcon/resvg" usvg:version="0.13.1">
    <defs/>
    <path fill="#000000" stroke="none" d="M 168 86.53 C 167.93812825258 83.23741558121 166.55850669491 80.10715152478 164.17 77.84 L 164.08 77.76 L 104.08 23.25 C 99.51249808722 19.02910714271 92.46750191278 19.02910714271 87.9 23.25 L 27.9 77.78 L 27.81 77.86 C 25.4126120428 80.148101154 24.03906058573 83.30618796868 24 86.62 L 24 156 C 24 162.62741699797 29.37258300203 168 36 168 L 72 168 C 78.62741699797 168 84 162.62741699797 84 156 L 84 120 L 108 120 L 108 156 C 108 162.62741699797 113.37258300203 168 120 168 L 156 168 C 162.62741699797 168 168 162.62741699797 168 156 Z M 156 156 L 120 156 L 120 120 C 120 113.37258300203 114.62741699797 108 108 108 L 84 108 C 77.37258300203 108 72 113.37258300203 72 120 L 72 156 L 36 156 L 36 86.72 C 36.00075140957 86.66724614662 36.02231714726 86.61692609202 36.06 86.58 L 96 32.12 L 155.93 86.58 C 155.93 86.58 155.99 86.65 155.99 86.58 Z"/>
</svg>

<svg xmlns="http://www.w3.org/2000/svg" viewBox="0 0 192 192"><path d="M168,86.53a12.3,12.3,0,0,0-3.83-8.69l-.09-.08-60-54.51a11.92,11.92,0,0,0-16.18,0l-60,54.53-.09.08A12.31,12.31,0,0,0,24,86.62V156a12,12,0,0,0,12,12H72a12,12,0,0,0,12-12V120h24v36a12,12,0,0,0,12,12h36a12,12,0,0,0,12-12ZM156,156H120V120a12,12,0,0,0-12-12H84a12,12,0,0,0-12,12v36H36V86.72a.2.2,0,0,1,.06-.14L96,32.12l59.93,54.46s.06.07.06,0Z"/></svg>
